X:9
T:Norits Karoon Yegav
O:Armenia
M:4/4
K:Dm
|:z2DBA2G2|^F3GA4|AGGA^F_EED|D8:|
z2ABcBBA|B3AB4|z2ABc2d2|d8|z2d_edcc^B|
c3^Bc4|z2c_edcBA|GBAG^F_ED2|z2ABcBAG|
^F3GA4|AGGA^F_EED|D8|z2d_edcc^b|
c3^Bc4|z2c_edcBA|GBAG^F_ED2|z2ABcBAG|
^F3GA4|AGGA^F_EED|D8|
